icons/Suru/scalable/actions/selection-symbolic.svg

<?xml version="1.0" encoding="UTF-8"?>
<svg id="svg7384" width="16" height="16" version="1.1" xmlns="http://www.w3.org/2000/svg" xmlns:cc="http://creativecommons.org/ns#" xmlns:dc="http://purl.org/dc/elements/1.1/" xmlns:osb="http://www.openswatchbook.org/uri/2009/osb" xmlns:rdf="http://www.w3.org/1999/02/22-rdf-syntax-ns#">
 <metadata id="metadata20854">
  <rdf:RDF>
   <cc:Work rdf:about="">
    <dc:title/>
    <dc:format>image/svg+xml</dc:format>
    <dc:type rdf:resource="http://purl.org/dc/dcmitype/StillImage"/>
   </cc:Work>
  </rdf:RDF>
 </metadata>
 <path id="rect7774" d="m7 0c-1.108 0-2 0.669-2 1.5v1.5h-1v1h1v5.5c0 0.831 0.892 1.5 2 1.5h5v1h1v-1h1c1.108 0 2-0.669 2-1.5v-8c0-0.831-0.892-1.5-2-1.5h-7zm-1 3h1v1h-1v-1zm2 0h1v1h-1v-1zm-5 0.025391c-0.73613 0.0186-1.3876 0.069696-1.9082 0.34766l0.77734 0.77734c0.26868-0.0647 0.66737-0.097201 1.1309-0.11914v-1.0059zm7 0c0.73613 0.0186 1.3876 0.069696 1.9082 0.34766l-0.77734 0.77734c-0.26868-0.0647-0.66736-0.097201-1.1309-0.11914v-1.0059zm-9.627 1.043c-0.05745 0.0986-0.10694 0.2039-0.14844 0.31445-0.16466 0.43866-0.22461 0.95958-0.22461 1.6172h1c0-0.53531 0.05488-0.90618 0.13672-1.168l-0.76367-0.76367zm12.254 0c0.05745 0.0986 0.10694 0.2039 0.14844 0.31445 0.16466 0.43866 0.22461 0.95958 0.22461 1.6172h-1c0-0.53531-0.05488-0.90618-0.13672-1.168l0.76367-0.76367zm-12.627 2.9316v1h1v-1h-1zm12 0h1v1h-1v-1zm-12 2v1h1v-1h-1zm12 0h1v1h-1v-1zm-12 2v1h1v-1h-1zm0 2c-3.7007e-17 0.65761 0.059945 1.1785 0.22461 1.6172 0.041501 0.11055 0.090987 0.21585 0.14844 0.31445l0.76367-0.76367c-0.081839-0.26179-0.13672-0.63266-0.13672-1.168h-1zm12 0c0 0.53531-0.05488 0.90618-0.13672 1.168l0.76367 0.76367c0.05745-0.0986 0.10694-0.2039 0.14844-0.31445 0.16466-0.43866 0.22461-0.95958 0.22461-1.6172h-1zm-10.131 1.8496-0.77734 0.77734c0.52056 0.27796 1.1721 0.32906 1.9082 0.34766v-1.0059c-0.46349-0.02194-0.86218-0.054441-1.1309-0.11914zm9.2617 0c-0.26868 0.0647-0.66736 0.097201-1.1309 0.11914v1.0059c0.73613-0.0186 1.3876-0.069696 1.9082-0.34766l-0.77734-0.77734zm-7.1309 0.15039v1h1v-1h-1zm2 0v1h1v-1h-1zm2 0v1h1v-1h-1z" fill="#808080"/>
</svg>

<svg xmlns="http://www.w3.org/2000/svg" height="16" width="16">
    <path d="M7 0C5.892 0 5 .669 5 1.5V3H4v1h1v5.5c0 .831.892 1.5 2 1.5h5v1h1v-1h1c1.108 0 2-.669 2-1.5v-8c0-.831-.892-1.5-2-1.5H7zM6 3h1v1H6V3zm2 0h1v1H8V3zm-5 .025c-.736.019-1.388.07-1.908.348l.777.777c.269-.064.668-.097 1.131-.119V3.025zm7 0c.736.019 1.388.07 1.908.348l-.777.777c-.269-.064-.668-.097-1.131-.119V3.025zM.373 4.068a2.068 2.068 0 00-.148.315C.06 4.82 0 5.343 0 6h1c0-.535.055-.906.137-1.168l-.764-.764zm12.254 0c.057.099.107.204.148.315.165.438.225.96.225 1.617h-1c0-.535-.055-.906-.137-1.168l.764-.764zM0 7v1h1V7H0zm12 0h1v1h-1V7zM0 9v1h1V9H0zm12 0h1v1h-1V9zM0 11v1h1v-1H0zm0 2c0 .658.06 1.179.225 1.617.041.11.09.216.148.315l.764-.764C1.055 13.906 1 13.535 1 13H0zm12 0c0 .535-.055.906-.137 1.168l.764.764c.057-.099.107-.204.148-.315.165-.438.225-.96.225-1.617h-1zM1.87 14.85l-.778.777c.52.278 1.172.329 1.908.348v-1.006c-.463-.022-.862-.055-1.13-.12zm9.26 0c-.268.064-.667.097-1.13.119v1.006c.736-.019 1.388-.07 1.908-.348l-.777-.777zM4 15v1h1v-1H4zm2 0v1h1v-1H6zm2 0v1h1v-1H8z" fill="gray"/>
</svg>
